fountain-pen.svg

<svg fill="currentColor" viewBox="0 0 24 24"><path d="m6.95 14.93 4.24-5.66 8.49-7.07c.39-.39 1.04-.39 1.41 0l.71.71c.39.37.39 1.02 0 1.41l-7.07 8.49-5.66 4.24zm1.41 2.83-2.12-2.12-2.83 1.41L2 21.29l2.12-2.12c.2-.17.51-.17.71 0 .17.2.17.51 0 .71L2.71 22l4.24-1.41z"/></svg>

<svg  viewBox="0 0 24 24" fill="currentColor"><path  d="M6.95,14.93L11.19,9.27L19.68,2.2C20.07,1.81 20.72,1.81 21.09,2.2L21.8,2.91C22.19,3.28 22.19,3.93 21.8,4.32L14.73,12.81L9.07,17.05L6.95,14.93M8.36,17.76L6.24,15.64L3.41,17.05L2,21.29L4.12,19.17C4.32,19 4.63,19 4.83,19.17C5,19.37 5,19.68 4.83,19.88L2.71,22L6.95,20.59L8.36,17.76Z"/></svg>
